!!!OTL: 429b. Tritt zu!
!!!ODT: 1845
!!!ARE: Europa, Mitteleuropa, Deutschland, Odenwald; Limburg, Nauheim
!!!SCT: E0429
!!!TXL: @@DE
!!!YEM: Copyright 1995, estate of Helmut Schaffrath.
**kern	**text
*ICvox	*
*M2/4	*
*k[f#]	*
*G:	*
!LO:TX:a:t=Mäßig bewegt.	!
!LO:TX:a:t=Aus dem Odenwald und Nauheim bei Limburg. 1845.	!
{8d	Wenn
=1	=1
8d	al-
8g	-le
8g	Brünn-
8b	-lein
=2	=2
8bL	flie-
16a	.
16gJ	.
8a}	-ßen,
{8dd	ſo
=3	=3
8b	ſoll
8g	man
8aL	trin-
8ccJ	.
=4	=4
4b	-ken.
8r}	.
{8d	Wenn
=5	=5
8d	al-
8g	-le
8g	Brünn-
8b	-lein
=6	=6
8bL	flie-
16a	.
16gJ	.
8a}	-ßen,
{8dd	ſo
=7	=7
8b	ſoll
8g	man
8aL	trin-
8ccJ	.
=8	=8
4b	-ken.
8r}	.
{16gL	Wenn
16aJ	.
=9	=9
8b	ich
8dd	meim
8dd	Schatʒ
8ee	nicht
=10	=10
8dd	ru-
16ccL	-fen
16bJ	.
4cc}	darf,
=11	=11
{4b	ju
4dd	ja,
=12	=12
8b/	ru-
16aL	-fen
16gJ	.
8a}	darf,
{8dd	thu
=13	=13
8b/	ich
8b/	ihm
8aL	win-
8ccJ	.
=14	=14
4b	-ken.
8r}	.
==	==
!!!AGN: Liebes - Lied
!!!ONB: ESAC (Essen Associative Code) Database: ERK1
!!!AMT: simple duple
!!!AIN: vox
!!!EED: Helmut Schaffrath
!!!EEV: 1.0
!!!GTL: Liebeslieder [Alte (aus dem 13. bis 17. Jahrh.) mit ihrem jungen Nachwuchs]
!!!URL-scan: https://rosdok.uni-rostock.de/mcrviewer/recordIdentifier/rosdok_ppn745177662/iview2/phys_0252.iview2?x=-778.7160746633431&y=1588.4636847797083&scale=0.3980252647138593&rotation=0&layout=singlePageLayout
!!!ENC: Anna Maria Matuszewska
!!!EEV: 2024/09/12
*-	*-
